X:55
M:2/4
L:1/8
K:F
cagf | edc=B | c_BAG | F3A | G3B | Afed | cBAG | F3A | G3d | cBAG | F4 :|

